X:15
T:I've Got A Motor Bike Waiting For You
C:Reginald Stoneham 1870-1942
O:Australia
L:1/8
M:2/4
I:linebreak $
K:G
"^Swing" D2 | E2 F2 || GA FG- | GA F2 | GA FG- | G z F2 | EF ^DE- | EF ^D z |$ EF ^DE- | E=D E^E | 
w: Then|Bill Said,|I've got a mo|* tor bike|wai- ting for you,|* An|In- di- an Mo-|. tor bike|fit- ted for two,|* Ab- out a|
F2 G2 | ^G A2 z | z F2 ^E | FD =EF | G2 A2 | ^A B2 z | z A2 ^G |$ A z D2 | GA FG- | G A2 F | 
w: mile a|min- ute|we will|fly, And when I|get you|in it,|Say good-|bye, Oh!!|I know a ca-|. fe, a|
GA FG- | G z F2 | E^D EA- | A^G A2 | B2 A2 | F2 D2 |$ GA BA- | AG E z | DE GE | ED B, z | EF GF- | 
w: new one to you|* I've|fixed up a sup|* per for|two, So|Mai- sie,|Jump up and sit|* be- hind,|Cu- ddle up, I|do not mind,|Long as I'm cudd-|
FG A2 | G4- | G z :| 
w: . led by|you!||

